X:1
T:Clog Hornpipe. WHL.[003]
T:Clog Hornpipe. WHL.[003]
T:Wonder,aka. WHL.[003], The
T:Possibly by James Hill?
C:Possibly by James Hill?
L:1/8
Q:1/2=80
M:2/2
K:A
V:1 treble 
V:1
 (3EFG |"^All as written" AedA GdBG | AdBG E2 (3BAG | FABc dcBA | %4
"^Could be a spare bar!" GABc dcBA | GBed fedB | AecA GdBG | ABcA E2 (3BAG | Ffed cBAG | %9
 B2 A2 A2 :: (3cBA | Geed e2 (3cBA | Geed egfe | deff afdf | edef edcB | cdcB AcfB | BcBA GB e2 | %17
 gagf edcB | B2 A2 A2 :| %19

